Newaita/actions/24/mail-mark-task.svg

<?xml version="1.0" encoding="UTF-8"?>
<svg xmlns="http://www.w3.org/2000/svg" xmlns:xlink="http://www.w3.org/1999/xlink" width="24pt" height="24pt" viewBox="0 0 24 24" version="1.1">
<g id="surface1">
<path style=" stroke:none;fill-rule:nonzero;fill:rgb(25.882354%,25.882354%,25.882354%);fill-opacity:1;" d="M 2.976562 3.164062 C 1.878906 3.164062 0.992188 4.050781 0.992188 5.148438 L 0.992188 19.535156 C 0.992188 20.636719 1.878906 21.523438 2.976562 21.523438 L 3.472656 21.523438 L 3.472656 20.03125 C 2.921875 20.03125 2.480469 19.589844 2.480469 19.039062 L 2.480469 5.800781 L 11.335938 13.726562 C 11.660156 14.015625 12.152344 14.015625 12.480469 13.726562 L 21.335938 5.800781 L 21.335938 13.085938 L 22.824219 13.085938 L 22.824219 5.148438 C 22.824219 4.050781 21.9375 3.164062 20.839844 3.164062 Z M 3.765625 4.652344 L 20.050781 4.652344 L 11.90625 11.9375 Z M 6.945312 20.03125 L 6.945312 21.523438 L 14.386719 21.523438 L 14.386719 20.03125 Z M 6.945312 20.03125 "/>
<path style=" stroke:none;fill-rule:nonzero;fill:rgb(100%,43.921569%,26.274511%);fill-opacity:1;" d="M 16.09375 20.03125 L 22.105469 20.03125 C 22.503906 20.03125 22.824219 20.367188 22.824219 20.777344 C 22.824219 21.1875 22.503906 21.523438 22.105469 21.523438 L 16.09375 21.523438 C 15.699219 21.523438 15.378906 21.1875 15.378906 20.777344 C 15.378906 20.367188 15.699219 20.03125 16.09375 20.03125 Z M 16.09375 20.03125 "/>
<path style=" stroke:none;fill-rule:nonzero;fill:rgb(100%,43.921569%,26.274511%);fill-opacity:1;" d="M 16.09375 14.078125 L 22.105469 14.078125 C 22.503906 14.078125 22.824219 14.414062 22.824219 14.824219 C 22.824219 15.234375 22.503906 15.566406 22.105469 15.566406 L 16.09375 15.566406 C 15.699219 15.566406 15.378906 15.234375 15.378906 14.824219 C 15.378906 14.414062 15.699219 14.078125 16.09375 14.078125 Z M 16.09375 14.078125 "/>
<path style=" stroke:none;fill-rule:nonzero;fill:rgb(100%,43.921569%,26.274511%);fill-opacity:1;" d="M 16.09375 17.054688 L 22.105469 17.054688 C 22.503906 17.054688 22.824219 17.378906 22.824219 17.78125 L 22.824219 17.820312 C 22.824219 18.222656 22.503906 18.542969 22.105469 18.542969 L 16.09375 18.542969 C 15.699219 18.542969 15.378906 18.222656 15.378906 17.820312 L 15.378906 17.78125 C 15.378906 17.378906 15.699219 17.054688 16.09375 17.054688 Z M 16.09375 17.054688 "/>
<path style=" stroke:none;fill-rule:nonzero;fill:rgb(100%,43.921569%,26.274511%);fill-opacity:1;" d="M 5.210938 14.078125 C 5.621094 14.078125 5.953125 14.414062 5.953125 14.824219 C 5.953125 15.234375 5.621094 15.566406 5.210938 15.566406 C 4.796875 15.566406 4.464844 15.234375 4.464844 14.824219 C 4.464844 14.414062 4.796875 14.078125 5.210938 14.078125 Z M 5.210938 14.078125 "/>
<path style=" stroke:none;fill-rule:nonzero;fill:rgb(100%,43.921569%,26.274511%);fill-opacity:1;" d="M 5.210938 17.054688 C 5.621094 17.054688 5.953125 17.390625 5.953125 17.800781 C 5.953125 18.210938 5.621094 18.542969 5.210938 18.542969 C 4.796875 18.542969 4.464844 18.210938 4.464844 17.800781 C 4.464844 17.390625 4.796875 17.054688 5.210938 17.054688 Z M 5.210938 17.054688 "/>
<path style=" stroke:none;fill-rule:nonzero;fill:rgb(100%,43.921569%,26.274511%);fill-opacity:1;" d="M 5.210938 20.03125 C 5.621094 20.03125 5.953125 20.367188 5.953125 20.777344 C 5.953125 21.1875 5.621094 21.523438 5.210938 21.523438 C 4.796875 21.523438 4.464844 21.1875 4.464844 20.777344 C 4.464844 20.367188 4.796875 20.03125 5.210938 20.03125 Z M 5.210938 20.03125 "/>
</g>
</svg>

<svg xmlns="http://www.w3.org/2000/svg" width="32" height="32" viewBox="0 0 24 24"><path d="M2.977 3.164A1.982 1.982 0 0 0 .992 5.148v14.387c0 1.102.887 1.988 1.985 1.988h.496v-1.492a.989.989 0 0 1-.993-.992V5.801l8.856 7.926c.324.289.816.289 1.144 0L21.336 5.8v7.285h1.488V5.148a1.982 1.982 0 0 0-1.984-1.984zm.789 1.488H20.05l-8.145 7.285zm3.18 15.38v1.491h7.44v-1.492zm0 0" fill="#424242"/><path d="M16.094 20.031h6.011c.399 0 .72.336.72.746s-.321.746-.72.746h-6.011c-.395 0-.715-.335-.715-.746 0-.41.32-.746.715-.746zm0 0M16.094 14.078h6.011c.399 0 .72.336.72.746a.73.73 0 0 1-.72.742h-6.011a.729.729 0 0 1-.715-.742c0-.41.32-.746.715-.746zm0 0M16.094 17.055h6.011c.399 0 .72.324.72.726v.04c0 .402-.321.722-.72.722h-6.011a.717.717 0 0 1-.715-.723v-.039a.72.72 0 0 1 .715-.726zm0 0M5.21 14.078a.745.745 0 1 1-.005 1.49.745.745 0 0 1 .006-1.49zm0 0M5.21 17.055a.745.745 0 1 1-.005 1.49.745.745 0 0 1 .006-1.49zm0 0M5.21 20.031a.745.745 0 1 1-.005 1.49.745.745 0 0 1 .006-1.49zm0 0" fill="#ff7043"/></svg>
